X: 1
T: Trip To London, The
M: 4/4
L: 1/8
R: reel
K: Gmaj
DEFD GFDC|B,G,B,C DE=FD|~G3B dBcA|GFDE =FDCF|
DE=FD G^FDC|B,G,B,C DE=FD|GFGB AGFA|1 DGGF G3F:|2 DGGF G2Bd||
|:gBdg GBdg|bgag e^def|gBBA (3Bcd BA|GBdB A2Bd|
gBdg GBdg|bgag e^def|gd~d2 ^cdBG|1 FGAF G2Bd:|2 FGAF G3F||
